X:5
T:Mars der gezworenen
C:Traditioneel
O:Vlaanderen
R:March
Z:Bert Van Vreckem <http://flanders.blackmill.net/music/>
M:4/4
L:1/8
K:G
d2-de/d/ Bd ge|d2 d/e/d/c/ B4|de/d/ B2 cd/c/ A2|Bd ec BA Bc|
d2-de/d/ BG ec|d2 e/d/c/d/ g4|dd/c/ Be dB Ac|Bd Bd B4:|
|:f2-fe/f/ gf ed|(3gfe dd d4|(3Bcd dd ed cB|d2-dc/B/ AA Bc|
d2 d/e/d/c/ Bg fe|dc BA c2-cd/e/|dB BB gd cA|(3Bcd BB B4:|
